!!!!SEGMENT: pl-gd--ee-2628--007-011_stabile-annibale--sacrarum-modulationum-quae-est-ista-a-6.krn
!!!cenid: 15xx:1100
!!!COM: Stabile, Annibale
!!!COM-rismID: pe30009662
!!!CDT: ~1535-1595/04
!!!CNT: Italian
!!!GTL: Sacrarum modulationum
!!!OTL: Quae est ista a 6
!!!OMV: 011
!!!PDT: 1585
!!!AGN:
!!!SMS-siglum: PL-GD
!!!SMS-shelfmark: Ee 2628
!!!SMS-shelfwork: 007-011 G
!!!SMS-variant:
!!!SMS-altvar:
!!!NIFC-rismSourceID: 990060529
!!!NIFC-islandoraID: pl-gd:66139
!!!URL-pdf-islandora: https://repozytorium.nifc.pl/islandora/object/pl-gd%3A66139/datastream/PDF/view
!!!URL-scan: https://polish.musicsources.pl/pl/lokalizacje/galeria/klocki-introligatorskie/673 @EN{Scan on Polish Music Sources Website} @PL{Skany w portalu Dziedzictwo Muzyki Polskiej w otwartym dostępie}
!!!ONB-nifc: UWAGA: Cantus: s. 102-113, Tenore: s. 258-269, Basso: s. 414-425, Quinto: s. 736-747, Sextus: s. 624-632. Dla głosu Alto proszę skorzystać z https://pbc.gda.pl/dlibra/publication/87583/edition/79412/content, s. 25-48. Uwaga: utwory podzielone wg spisu treści dostępnych na końcu ksiąg – proszę sprawdzać sąsiednie tytuły i zwracać uwagę na liczbę głosów. Głosy Quinto i Sextus proszę umieszczać wg ambitusu (może się różnić w zależności od utworu).
!!!AIN: 1 alto 1 bass 1 soprn 1 tenor 2 vox
!!!key: a
**kern	**text	**kern	**text	**kern	**text	**kern	**text	**kern	**text	**kern	**text
*part6	*part6	*part5	*part5	*part4	*part4	*part3	*part3	*part2	*part2	*part1	*part1
*staff6	*staff6	*staff5	*staff5	*staff4	*staff4	*staff3	*staff3	*staff2	*staff2	*staff1	*staff1
*I"BASSVS	*	*I"TENOR	*	*I"QVINTVS	*	*I"ALTVS	*	*I"SEXTVS	*	*I"CANTVS	*
*I'B	*	*I'T	*	*I'V 5	*	*I'A	*	*I'V 6	*	*I'S	*
*ICvox	*	*ICvox	*	*ICvox	*	*ICvox	*	*ICvox	*	*ICvox	*
*Ibass	*	*Itenor	*	*Ivox	*	*Ialto	*	*Ivox	*	*Isoprn	*
*clefF3	*	*clefC3	*	*clefC3	*	*clefC2	*	*clefG2	*	*clefG2	*
*k[]	*	*k[]	*	*k[]	*	*k[]	*	*k[]	*	*k[]	*
*a:	*	*a:	*	*a:	*	*a:	*	*a:	*	*a:	*
*M2/1	*	*M2/1	*	*M2/1	*	*M2/1	*	*M2/1	*	*M2/1	*
*met(C|)	*	*met(C|)	*	*met(C|)	*	*met(C|)	*	*met(C|)	*	*met(C|)	*
=1-	=1-	=1-	=1-	=1-	=1-	=1-	=1-	=1-	=1-	=1-	=1-
!	!	!	!	!LO:TX:b:t=QVæ eſt iſta.	!	!	!	!	!	!	!
!LO:TX:i:a:t=Sex Vocum.	!	!LO:TX:a:i:t=Sex Vocum.	!	!LO:TX:a:i:t=Sex Vocum.	!	!	!	!LO:TX:a:i:t=Sex vocum.	!	!LO:TX:a:i:t=Sex Vocum.	!
00r	.	00r	.	00r	.	1r	.	00r	.	0ee	QVæ
.	.	.	.	.	.	0a	QVæ	.	.	.	.
=2-	=2-	=2-	=2-	=2-	=2-	=2-	=2-	=2-	=2-	=2-	=2-
.	.	.	.	.	.	.	.	.	.	1cc	eſt
.	.	.	.	.	.	1d	eſt	.	.	1ff	iſ-
=3-	=3-	=3-	=3-	=3-	=3-	=3-	=3-	=3-	=3-	=3-	=3-
00r	.	00r	.	00r	.	1a	iſ-	1r	.	1ee	-ta
.	.	.	.	.	.	2e/	-ta	0ee	QVæ	2r	.
.	.	.	.	.	.	2a\	quæ	.	.	2cc\	quæ
=4-	=4-	=4-	=4-	=4-	=4-	=4-	=4-	=4-	=4-	=4-	=4-
.	.	.	.	.	.	2g#X\	pro-	.	.	2b/	pro-
.	.	.	.	.	.	2.a\	-gre-	.	.	2.cc\	-gre-
.	.	.	.	.	.	.	.	1cc	eſt	.	.
.	.	.	.	.	.	4gny\	.	.	.	4b/	.
.	.	.	.	.	.	4f\	.	.	.	4a/	.
.	.	.	.	.	.	4e/	.	.	.	4g/	.
=5-	=5-	=5-	=5-	=5-	=5-	=5-	=5-	=5-	=5-	=5-	=5-
!	!	!LO:TX:t=P:problem:kreska pseudotaktowa zapisana ołówkiem	!	!	!	!	!	!	!	!	!
00r	.	00r	.	1r	.	4d/	.	1ff	iſ-	2a/	.
.	.	.	.	.	.	4e/	.	.	.	.	.
.	.	.	.	.	.	4f\	.	.	.	2.dd\	.
.	.	.	.	.	.	4g\	.	.	.	.	.
.	.	.	.	2r	.	2.a\	.	1ee	-ta	.	.
.	.	.	.	.	.	.	.	.	.	4cc\	.
.	.	.	.	2a\	Quæ	.	.	.	.	4cc\	.
.	.	.	.	.	.	8g\	.	.	.	8b/	.
.	.	.	.	.	.	8f\	.	.	.	8a/	.
=6-	=6-	=6-	=6-	=6-	=6-	=6-	=6-	=6-	=6-	=6-	=6-
.	.	.	.	2g#X\	pro-	2e/	.	2r	.	2b/	.
.	.	.	.	2.a\	-gre-	2A/	.	2ee\	quæ	2cc#X\	-di-
.	.	.	.	.	.	2.d/	.	2ff\	pro-	2dd\	-tur
.	.	.	.	4gny\	.	.	.	.	.	.	.
.	.	.	.	4f\	.	.	.	1dd\	-gre-	1a/	quę
.	.	.	.	4e\	.	4e/	.	.	.	.	.
*	*	*	*	*	*	*custos:f	*	*	*	*custos:a	*
!	!	!	!	!	!	!LO:LB:g=original	!	!	!	!LO:LB:g=original	!
=7-	=7-	=7-	=7-	=7-	=7-	=7-	=7-	=7-	=7-	=7-	=7-
0r	.	1r	.	2d\	.	4f\	.	.	.	.	.
.	.	.	.	.	.	4g\	.	.	.	.	.
.	.	.	.	2f\	-di-	1a	.	2dd\	-di-	2a/	pro-
*	*	*	*	*	*	*	*	*	*	*lig	*
!	!	!LO:TX:t=P:problem:kreska pseudotaktowa zapisana ołówkiem	!	!	!	!	!	!	!	!	!
.	.	0e	QVæ	1e	-tur	.	.	0ee	-tur	1b	-gre-
.	.	.	.	.	.	2g#X\	-di-	.	.	.	.
=8-	=8-	=8-	=8-	=8-	=8-	=8-	=8-	=8-	=8-	=8-	=8-
*	*	*	*	*	*	*	*	*	*	*col	*
0A	QVæ	.	.	2r	.	0a	-tur	.	.	2.ccny\	.
.	.	.	.	1e	Quæ	.	.	.	.	.	.
*	*	*	*	*	*	*	*	*	*	*Xlig	*
.	.	.	.	.	.	.	.	.	.	4dd\	.
*	*	*	*	*	*	*	*	*	*	*Xcol	*
!	!	!LO:TX:t=P:problem:kreska pseudotaktowa zapisana ołówkiem	!	!	!	!	!	!	!	!	!
.	.	1c	eſt	.	.	.	.	2r	.	4ee\	.
.	.	.	.	.	.	.	.	.	.	4ff\	.
.	.	.	.	2A/	eſt	.	.	1a/	Quæ	1ee\	.
=9-	=9-	=9-	=9-	=9-	=9-	=9-	=9-	=9-	=9-	=9-	=9-
1D	eſt	1f	iſ-	1d	iſ-	00r	.	.	.	.	.
.	.	.	.	.	.	.	.	2a/	eſt	2dd\	-di-
!	!	!LO:TX:t=P:problem:kreska pseudotaktowa zapisana ołówkiem	!	!	!	!	!	!	!	!	!
1A	iſ-	1e	-ta	1c	-ta	.	.	2a/	iſ-	0.ee	-tur
.	.	.	.	.	.	.	.	2a/	-ta	.	.
=10-	=10-	=10-	=10-	=10-	=10-	=10-	=10-	=10-	=10-	=10-	=10-
*	*	*	*	*	*ij	*	*	*	*	*	*
2E/	-ta	2r	.	0e	Quæ	.	.	2g#X/	quę	.	.
2A\	quæ	2c/	quæ	.	.	.	.	2a/	pro-	.	.
2G#X\	pro-	2B/	pro-	.	.	.	.	2b/	-gre-	.	.
!	!	!LO:TX:t=P:problem:kreska pseudotaktowa zapisana ołówkiem	!	!	!	!	!	!	!	!	!
2.A\	-gre-	2.c/	-gre-	.	.	.	.	2a/	-di-	.	.
*	*	*	*	*custos:c	*	*	*	*custos:a	*	*	*
!	!	!	!	!LO:LB:g=original	!	!	!	!LO:LB:g=original	!	!	!
=11-	=11-	=11-	=11-	=11-	=11-	=11-	=11-	=11-	=11-	=11-	=11-
.	.	.	.	1c	eſt	1r	.	1a	-tur	00r	.
4Gny\	.	4B/	.	.	.	.	.	.	.	.	.
4F/	.	4A/	.	.	.	.	.	.	.	.	.
4E/	.	4G/	.	.	.	.	.	.	.	.	.
!	!	!LO:TX:t=P:problem:kreska pseudotaktowa zapisana ołówkiem	!	!	!	!	!	!	!	!	!
4D/	.	2.A/	.	1f	iſ-	0a	Quæ	1r	.	.	.
4E/	.	.	.	.	.	.	.	.	.	.	.
4F/	.	.	.	.	.	.	.	.	.	.	.
4G\	.	4B/	.	.	.	.	.	.	.	.	.
=12-	=12-	=12-	=12-	=12-	=12-	=12-	=12-	=12-	=12-	=12-	=12-
4A\	.	4c/	.	2e\	-ta	.	.	00r	.	.	.
4B\	.	4d/	.	.	.	.	.	.	.	.	.
*	*	*	*	*	*Xij	*	*	*	*	*	*
1c	.	2.e\	.	1e	que	.	.	.	.	.	.
.	.	.	.	.	.	1gny	eſt	.	.	.	.
.	.	4f\	.	.	.	.	.	.	.	.	.
!	!	!LO:TX:t=P:problem:kreska pseudotaktowa zapisana ołówkiem	!	!	!	!	!	!	!	!	!
2B\	.	1g\	.	2d\	pro-	.	.	.	.	.	.
*custos:A	*	*	*	*	*	*	*	*	*	*	*
!LO:LB:g=original	!	!	!	!	!	!	!	!	!	!	!
=13-	=13-	=13-	=13-	=13-	=13-	=13-	=13-	=13-	=13-	=13-	=13-
2.A\	.	.	.	2c/	-gre-	1.cc	iſ-	.	.	1r	.
.	.	2f\	-di-	2c/	-di-	.	.	.	.	.	.
4A\	di-	.	.	.	.	.	.	.	.	.	.
*	*	*custos:g	*	*	*	*	*	*	*	*	*
!	!	!LO:LB:g=original	!	!	!	!	!	!	!	!	!
1G	-tur	2g\	-tur	1d	-tur	.	.	.	.	2r	.
*	*	*	*ij	*	*	*	*	*	*	*	*
!	!	!LO:TX:t=P:problem:kreska pseudotaktowa zapisana ołówkiem	!	!	!	!	!	!	!	!	!
.	.	2g\	quæ	.	.	2b\	-ta	.	.	1dd\	Quæ
=14-	=14-	=14-	=14-	=14-	=14-	=14-	=14-	=14-	=14-	=14-	=14-
0r	.	2f\	pro-	0r	.	2a\	que	0r	.	.	.
.	.	2.e\	-gre-	.	.	2g\	pro-	.	.	2cc\	eſt
.	.	.	.	.	.	1.a	-gre-	.	.	1ff	iſ-
.	.	4d\	.	.	.	.	.	.	.	.	.
.	.	1d\	.	.	.	.	.	.	.	.	.
=15-	=15-	=15-	=15-	=15-	=15-	=15-	=15-	=15-	=15-	=15-	=15-
1A	quæ	.	.	2r	.	.	.	2r	.	1ee	-ta
*	*	*	*	*	*ij	*	*	*	*	*	*
.	.	2c/	.	2.e\	que	2a\	-di-	2a/	quæ	.	.
2G#X\	pro-	2B/	.	.	.	1e	-tur	2b/	pro-	2r	.
.	.	.	.	4d\	.	.	.	.	.	.	.
!	!	!LO:TX:t=P:problem:kreska pseudotaktowa zapisana ołówkiem	!	!	!	!	!	!	!	!	!
2.A\	-gre-	2A/	.	4c/	.	.	.	2.cc\	-gre-	2ee\	quæ
.	.	.	.	4B/	.	.	.	.	.	.	.
=16-	=16-	=16-	=16-	=16-	=16-	=16-	=16-	=16-	=16-	=16-	=16-
.	.	2c/	.	1.A	.	0r	.	.	.	2ee\	pro-
4Gny\	.	.	.	.	.	.	.	4b/	.	.	.
4F/	.	2.d\	.	.	.	.	.	4a/	.	1ff	-gre-
4E/	.	.	.	.	.	.	.	4gny/	.	.	.
2D/	.	.	.	.	.	.	.	4f/	.	.	.
.	.	4c/	.	.	.	.	.	4g/	.	.	.
2F/	-di-	4B/	.	2A/	pro-	.	.	1a/	.	2dd\	-di-
!	!	!LO:TX:t=P:problem:kreska pseudotaktowa zapisana ołówkiem	!	!	!	!	!	!	!	!	!
.	.	4A/	.	.	.	.	.	.	.	.	.
=17-	=17-	=17-	=17-	=17-	=17-	=17-	=17-	=17-	=17-	=17-	=17-
1E	-tur	2B/	.	2.e\	-gre-	1r	.	.	.	1ee	-tur
.	.	2B/	-di-	.	.	.	.	2g#X/	-di-	.	.
.	.	.	.	4e\	-di-	.	.	.	.	.	.
*	*	*	*	*	*	*	*	*	*	*custos:ee	*
!	!	!LO:TX:t=P:problem:kreska pseudotaktowa zapisana ołówkiem	!	!	!	!	!	!	!	!LO:LB:g=original	!
1r	.	1A	-tur	1e	-tur	2r	.	2a/	-tur	2r	.
.	.	.	.	.	.	2a\	qua-	2cc\	qua-	2ee\	Qua-
=18-	=18-	=18-	=18-	=18-	=18-	=18-	=18-	=18-	=18-	=18-	=18-
00r	.	0r	.	00r	.	2g#X\	-ſi	2b/	-ſi	2ee\	-ſi
.	.	.	.	.	.	2a\	au-	2cc#X\	au-	2ee\	au-
.	.	.	.	.	.	1d	-ro-	1dd	-ro-	1ff	-ro-
*	*	*	*Xij	*	*Xij	*custos:a	*	*	*	*	*
!	!	!	!	!	!	!LO:LB:g=original	!	!	!	!	!
=19-	=19-	=19-	=19-	=19-	=19-	=19-	=19-	=19-	=19-	=19-	=19-
.	.	00r	.	.	.	2a\	-ra	2ccny\	-ra	2ee\	-ra
.	.	.	.	.	.	2b\	con-	2dd\	con-	2.gg\	con-
*	*	*	*	*	*	*	*	*custos:dd	*	*	*
!	!	!	!	!	!	!	!	!LO:LB:g=original	!	!	!
.	.	.	.	.	.	2.cc\	-ſur-	4ee\	-ſur-	.	.
.	.	.	.	.	.	.	.	4ff\	.	4ff\	.
.	.	.	.	.	.	.	.	1gg\	.	2.ee\	.
.	.	.	.	.	.	8b\	.	.	.	.	.
.	.	.	.	.	.	8a\	.	.	.	.	.
=20-	=20-	=20-	=20-	=20-	=20-	=20-	=20-	=20-	=20-	=20-	=20-
0r	.	.	.	00r	.	1gny	.	.	.	.	.
.	.	.	.	.	.	.	.	.	.	4dd\	.
.	.	.	.	.	.	.	.	2ff\	.	1dd	.
.	.	.	.	.	.	1a	-gens	1ee	.	.	.
.	.	.	.	.	.	.	.	.	.	2cc#X\	-ſur-
=21-	=21-	=21-	=21-	=21-	=21-	=21-	=21-	=21-	=21-	=21-	=21-
!	!	!LO:TX:t=P:problem:kreska pseudotaktowa zapisana ołówkiem	!	!	!	!	!	!	!	!	!
2r	.	2r	.	.	.	2r	.	2dd\	-gens	1dd	-gens
*	*	*	*	*	*	*	*ij	*	*	*	*
2d\	qua-	2f\	qua-	.	.	2a\	qua-	2dd\	qua-	.	.
*	*	*custos:e	*	*	*	*	*	*	*	*	*
!	!	!LO:LB:g=original	!	!	!	!	!	!	!	!	!
2c#X\	-ſi	2e\	-ſi	.	.	2a\	-si	2ee\	-ſi	1r	.
2d\	au-	1d\	au-	.	.	2a\	au-	2ff\	au-	.	.
=22-	=22-	=22-	=22-	=22-	=22-	=22-	=22-	=22-	=22-	=22-	=22-
1G	-ro-	.	.	00r	.	1b	-ro-	4gg\	-ro-	00r	.
.	.	.	.	.	.	.	.	4ff\	.	.	.
.	.	2e\	.	.	.	.	.	4ee\	.	.	.
.	.	.	.	.	.	.	.	4dd\	.	.	.
*custos:A	*	*	*	*	*	*	*	*	*	*	*
!LO:LB:g=original	!	!LO:TX:t=P:problem:kreska pseudotaktowa zapisana ołówkiem	!	!	!	!	!	!	!	!	!
2A\	-ra	1f	-ro-	.	.	2a\	-ra	2cc\	.	.	.
2B\	con-	.	.	.	.	2d/	con-	2dd\	-ra	.	.
=23-	=23-	=23-	=23-	=23-	=23-	=23-	=23-	=23-	=23-	=23-	=23-
2.cny\	-ſur-	2e\	-ra	.	.	0g	-ſur-	2ee\	con-	.	.
.	.	2.e\	con-	.	.	.	.	1cc	-ſur-	.	.
8B\	.	.	.	.	.	.	.	.	.	.	.
8A\	.	.	.	.	.	.	.	.	.	.	.
1G	.	.	.	.	.	.	.	.	.	.	.
.	.	4d\	.	.	.	.	.	.	.	.	.
!	!	!LO:TX:t=P:problem:kreska pseudotaktowa zapisana ołówkiem	!	!	!	!	!	!	!	!	!
.	.	1d\	.	.	.	.	.	2b/	-gens	.	.
=24-	=24-	=24-	=24-	=24-	=24-	=24-	=24-	=24-	=24-	=24-	=24-
1A	-gens	.	.	1r	.	1e	-gens	1a	Pul-	1r	.
.	.	2c#X/	-ſur-	.	.	.	.	.	.	.	.
*	*	*	*	*custos:d	*	*	*Xij	*	*	*	*
!	!	!	!	!LO:LB:g=original	!	!	!	!	!	!	!
1r	.	1d	-gens	2r	.	2r	.	2a/	-chra	2r	.
.	.	.	.	2d\	Pul-	2f#X\	Pul-	2a/	vt	2.dd\	Pul-
=25-	=25-	=25-	=25-	=25-	=25-	=25-	=25-	=25-	=25-	=25-	=25-
!	!	!LO:TX:t=P:problem:kreska pseudotaktowa zapisana ołówkiem	!	!	!	!	!	!	!	!	!
0r	.	0r	.	2B/	-chra	1g	-chra	2b/	lu-	.	.
.	.	.	.	.	.	.	.	.	.	4dd\	-chra
.	.	.	.	2c/	vt	.	.	2gny/	-na	2ee\	vt
*	*	*	*	*	*	*	*	*	*ij	*	*
.	.	.	.	1A	lu-	2a\	vt	1cc	Pul-	1ff#X	lu-
.	.	.	.	.	.	1cc\	lu-	.	.	.	.
=26-	=26-	=26-	=26-	=26-	=26-	=26-	=26-	=26-	=26-	=26-	=26-
2r	.	2r	.	2G/	-na	.	.	2dd\	-chra	1gg	-na
*	*	*	*	*	*ij	*	*	*	*	*	*
2G\	Pul-	2d\	Pul-	2.g\	Pul-	2b\	-na	2.dd\	vt	.	.
2E/	-chra	2e\	-chra	.	.	1r	.	.	.	1r	.
.	.	.	.	4g\	-chra	.	.	4cc\	.	.	.
!	!	!LO:TX:t=P:problem:kreska pseudotaktowa zapisana ołówkiem	!	!	!	!	!	!	!	!	!
2F/	vt	1cny\	vt	2a\	vt	.	.	2cc\	lu-	.	.
=27-	=27-	=27-	=27-	=27-	=27-	=27-	=27-	=27-	=27-	=27-	=27-
1D	lu-	.	.	1f	lu-	2r	.	1dd	.	0r	.
.	.	2B/	lu-	.	.	2d/	e-	.	.	.	.
0C	-na	2c/	-na	1e	-na	1g	-lec-	0ee	-na	.	.
!	!	!LO:TX:t=P:problem:kreska pseudotaktowa zapisana ołówkiem	!	!	!	!	!	!	!	!	!
.	.	2c/	e-	.	.	.	.	.	.	.	.
*	*	*	*	*	*Xij	*	*	*	*	*	*
=28-	=28-	=28-	=28-	=28-	=28-	=28-	=28-	=28-	=28-	=28-	=28-
.	.	1g	-lec-	2r	.	2e/	-ta	.	.	2r	.
.	.	.	.	2e\	e-	2c/	vt	.	.	1ccny	e-
2r	.	2e\	-ta	2c/	-lec-	1g	ſol	1r	.	.	.
!	!	!LO:TX:t=P:problem:kreska pseudotaktowa zapisana ołówkiem	!	!	!	!	!	!	!	!	!
1C/	e-	2c/	vt	2e\	-ta	.	.	.	.	2gg\	-lec-
*	*	*	*	*	*	*	*ij	*custos:g	*Xij	*	*
!	!	!	!	!	!	!	!	!LO:LB:g=original	!	!	!
=29-	=29-	=29-	=29-	=29-	=29-	=29-	=29-	=29-	=29-	=29-	=29-
.	.	1g	sol	1c	vt	2r	.	2r	.	2ee\	-ta
2c\	-lec-	.	.	.	.	2e/	e-	2g/	e-	2cc\	vt
*	*	*	*	*	*	*	*	*	*	*custos:dd	*
!	!	!	!	!	!	!	!	!	!	!LO:LB:g=original	!
2B\	-ta	0r	.	1g	ſol	2d/	-lec-	1b	-lec-	1.dd	sol
2G\	vt	.	.	.	.	1g\	-ta	.	.	.	.
*	*	*	*	*	*ij	*custos:f#	*	*	*	*	*ij
!	!	!	!	!	!	!LO:LB:g=original	!	!	!	!	!
=30-	=30-	=30-	=30-	=30-	=30-	=30-	=30-	=30-	=30-	=30-	=30-
1d	ſol	.	.	2r	.	.	.	2a/	-ta	.	.
.	.	.	.	1d	e-	2f#X\	vt	2a/	e-	2dd\	e-
1r	.	1G	e-	.	.	1g	ſol	2dd\	-lec-	2b/	-lec-
.	.	.	.	2g\	-lec-	.	.	2b/	-ta	2dd\	-ta
*	*	*	*	*	*	*	*Xij	*	*	*	*
=31-	=31-	=31-	=31-	=31-	=31-	=31-	=31-	=31-	=31-	=31-	=31-
0r	.	1c	-lec-	2e\	-ta	1r	.	2g/	vt	1ee	vt
.	.	.	.	2c/	vt	.	.	2gg\	ſol	.	.
.	.	2B/	-ta	1g	ſol	2r	.	1r	.	2dd\	.
.	.	2G/	vt	.	.	1g\	e-	.	.	4cc\	.
.	.	.	.	.	.	.	.	.	.	4b/	.
*	*ij	*custos:d	*	*	*Xij	*	*	*	*	*	*
!	!	!LO:LB:g=original	!	!	!	!	!	!	!	!	!
=32-	=32-	=32-	=32-	=32-	=32-	=32-	=32-	=32-	=32-	=32-	=32-
1D	e-	1.d	ſol	1r	.	.	.	4r	.	1a	ſol
.	.	.	.	.	.	.	.	4a/	e-	.	.
.	.	.	.	.	.	2f#X\	-lec-	2dd\	-lec-	.	.
1G	-lec-	.	.	4r	.	2g\	-ta	2b/	-ta	1r	.
.	.	.	.	2G/	e-	.	.	.	.	.	.
*	*	*	*ij	*	*	*	*	*	*	*	*
!	!	!LO:TX:t=P:problem:kreska pseudotaktowa zapisana ołówkiem	!	!	!	!	!	!	!	!	!
.	.	2d\	e-	.	.	2.b\	vt	2g/	vt	.	.
.	.	.	.	2g\	-le-	.	.	.	.	.	.
=33-	=33-	=33-	=33-	=33-	=33-	=33-	=33-	=33-	=33-	=33-	=33-
2E/	-ta	2e\	-lec-	.	.	.	.	1gg	ſol	0r	.
.	.	.	.	2e\	-cta	4g\	.	.	.	.	.
2C/	vt	1g	-ta	.	.	2.cc\	.	.	.	.	.
.	.	.	.	4c/	vt	.	.	.	.	.	.
*	*	*	*	*custos:d	*	*	*	*	*ij	*	*Xij
!	!	!	!	!LO:LB:g=original	!	!	!	!	!	!	!
1G	ſol	.	.	1d	ſol	.	.	4r	.	.	.
.	.	.	.	.	.	8b\	.	4dd\	e-	.	.
.	.	.	.	.	.	8a\	.	.	.	.	.
!	!	!LO:TX:t=P:problem:kreska pseudotaktowa zapisana ołówkiem	!	!	!	!	!	!	!	!	!
.	.	2G/	vt	.	.	2b\	.	2gg\	-lec-	.	.
=34-	=34-	=34-	=34-	=34-	=34-	=34-	=34-	=34-	=34-	=34-	=34-
!	!	!LO:TX:t=P:problem:kreska pseudotaktowa zapisana ołówkiem	!	!	!	!	!	!	!	!	!
0r	.	0c	ſol	0r	.	1cc	ſol	2ee\	-ta	4r	.
.	.	.	.	.	.	.	.	.	.	4cc\	e-
.	.	.	.	.	.	.	.	2cc\	vt	2gg\	-lec-
.	.	.	.	.	.	0r	.	1gg	ſol	2ee\	-ta
.	.	.	.	.	.	.	.	.	.	2cc\	vt
=35-	=35-	=35-	=35-	=35-	=35-	=35-	=35-	=35-	=35-	=35-	=35-
1r	.	1r	.	1r	.	.	.	1r	.	1gg	ſol
*custos:c	*Xij	*	*Xij	*	*	*	*	*	*Xij	*	*
!LO:LB:g=original	!	!	!	!	!	!	!	!	!	!	!
2r	.	00r	.	2r	.	2r	.	2r	.	1r	.
2c\	Ter-	.	.	2e\	Ter-	2g\	Ter-	2cc\	Ter-	.	.
=36-	=36-	=36-	=36-	=36-	=36-	=36-	=36-	=36-	=36-	=36-	=36-
2.c\	-ri-	.	.	2.e\	-ri-	2.g\	-ri-	2.cc\	-ri-	00r	.
4c\	-bi-	.	.	4e\	-bi-	4g\	-bi-	4cc\	-bi-	.	.
2A\	-lis	.	.	2e\	-lis	1a	-lis	2cc\	-lis	.	.
1d\	vt	.	.	1f\	vt	.	.	1dd\	vt	.	.
=37-	=37-	=37-	=37-	=37-	=37-	=37-	=37-	=37-	=37-	=37-	=37-
.	.	.	.	.	.	2a\	vt	.	.	.	.
2d\	caſ-	.	.	1a	caſ-	2fny\	caſ-	2dd\	ca-	.	.
*	*	*	*	*	*	*	*	*custos:dd	*	*	*
!	!	!	!	!	!	!	!	!LO:LB:g=original	!	!	!
2d\	-tro-	00r	.	.	.	1b	-tro-	2dd\	-ſtro-	.	.
2G\	-rum	.	.	1g\	-tro-	.	.	2dd\	-rũ(m)	.	.
=38-	=38-	=38-	=38-	=38-	=38-	=38-	=38-	=38-	=38-	=38-	=38-
2.d\	a-	.	.	.	.	1a	-rũ(m)	2.dd\	a-	00r	.
.	.	.	.	2f#X\	-rum	.	.	.	.	.	.
4d\	-ci-	.	.	.	.	.	.	4dd\	-ci-	.	.
2G\	-es	.	.	2g\	a-	2.g\	a-	2b/	-es	.	.
2.c\	or-	.	.	2e\	-ci-	.	.	1cc\	or-	.	.
.	.	.	.	.	.	4g\	-ci-	.	.	.	.
=39-	=39-	=39-	=39-	=39-	=39-	=39-	=39-	=39-	=39-	=39-	=39-
.	.	.	.	2e\	-es	2g\	-es	.	.	.	.
4B\	.	.	.	.	.	.	.	.	.	.	.
4A\	.	.	.	1fny	or-	1a	or-	2cc\	-di-	.	.
4G\	.	.	.	.	.	.	.	.	.	.	.
!	!	!LO:TX:t=P:problem:kreska pseudotaktowa zapisana ołówkiem	!	!	!	!	!	!	!	!	!
2F/	.	0c	Ter-	.	.	.	.	0cc	-na-	.	.
2E/	-di-	.	.	2g\	-di-	2g\	-di-	.	.	.	.
=40-	=40-	=40-	=40-	=40-	=40-	=40-	=40-	=40-	=40-	=40-	=40-
1F	-na-	.	.	1a	-na-	1f	-na-	.	.	1r	.
!	!	!LO:TX:t=P:problem:kreska pseudotaktowa zapisana ołówkiem	!	!	!	!	!	!	!	!	!
2C/	-ta	1.c	-ri-	2g\	-ta	2e/	-ta	2cc\	-ta	2r	.
*	*	*	*	*	*	*custos:g	*	*	*	*	*
!	!	!	!	!	!	!LO:LB:g=original	!	!	!	!	!
2C/	Ter-	.	.	2G/	Ter-	2g\	Ter-	2cc\	Ter-	2ee\	Ter-
=41-	=41-	=41-	=41-	=41-	=41-	=41-	=41-	=41-	=41-	=41-	=41-
2.F/	-ri-	.	.	2.A/	-ri-	2.f\	-ri-	2.cc\	-ri-	2.ffny\	-ri-
.	.	2c/	-bi-	.	.	.	.	.	.	.	.
4F/	-bi-	.	.	4A/	-bi-	4f\	-bi-	4cc\	-bi-	4ff\	-bi-
!	!	!LO:TX:t=P:problem:kreska pseudotaktowa zapisana ołówkiem	!	!	!	!	!	!	!	!	!
2C/	-lis	1c	-lis	1e	-lis	0g	-lis	1cc	-lis	1ee	-lis
1c\	vt	.	.	.	.	.	.	.	.	.	.
=42-	=42-	=42-	=42-	=42-	=42-	=42-	=42-	=42-	=42-	=42-	=42-
*	*	*	*	*lig	*	*	*	*	*	*	*
.	.	2G/	vt	1d	vt	.	.	2dd\	vt	2.gg\	vt
2B\	ca-	2G/	caſ-	.	.	.	.	2dd\	caſ-	.	.
.	.	.	.	.	.	.	.	.	.	4ff\	.
*custos:c	*	*	*	*Xlig	*	*	*	*	*	*	*
!LO:LB:g=original	!	!	!	!	!	!	!	!	!	!	!
2c\	-ſtro-	2c/	-tro-	1.e	.	2r	.	2g/	-tro-	2ee\	.
2A\	-rum	2c/	-rum	.	.	2.a\	a-	2a/	-rum	2ee\	caſ-
=43-	=43-	=43-	=43-	=43-	=43-	=43-	=43-	=43-	=43-	=43-	=43-
2.E/	a-	2.B/	a-	.	.	.	.	2.b/	a-	1ee	-tro-
.	.	.	.	.	.	4a\	-ci-	.	.	.	.
.	.	.	.	2e\	caſ-	2g#X\	-es	.	.	.	.
4E/	-ci-	4B/	-ci-	.	.	.	.	4b/	-ci-	.	.
*	*	*	*	*	*	*	*	*	*	*custos:ee	*
!	!	!LO:TX:t=P:problem:kreska pseudotaktowa zapisana ołówkiem	!	!	!	!	!	!	!	!LO:LB:g=original	!
2A\	-es	0A	-es	2e\	-tro-	1.a	or-	2cc#X\	-es	2ee\	-rum
2.D/	or-	.	.	1d\	-rum	.	.	1dd\	or-	1ff\	a-
*	*	*	*	*custos:A	*	*	*	*	*	*	*
!	!	!	!	!LO:LB:g=original	!	!	!	!	!	!	!
=44-	=44-	=44-	=44-	=44-	=44-	=44-	=44-	=44-	=44-	=44-	=44-
4E/	.	.	.	.	.	.	.	.	.	.	.
4F/	.	.	.	2.A/	a-	2a\	-di-	4ccny\	.	2ff\	-ci-
4G\	.	.	.	.	.	.	.	4b/	.	.	.
2A\	.	2r	.	.	.	1a	-na-	2cc\	.	2ee\	-es
.	.	.	.	4A/	-ci-	.	.	.	.	.	.
!	!	!LO:TX:t=P:problem:kreska pseudotaktowa zapisana ołówkiem	!	!	!	!	!	!	!	!	!
2D/	-di-	2.A/	or-	2d\	-es	.	.	2ff\	-di-	2dd\	or-
=45-	=45-	=45-	=45-	=45-	=45-	=45-	=45-	=45-	=45-	=45-	=45-
1A	-na-	.	.	2.e\	or-	1a	-ta	2.ee\	-na-	2cc\	-di-
.	.	4B/	.	.	.	.	.	.	.	.	.
.	.	4c/	.	.	.	.	.	.	.	1cc	-na-
.	.	4d\	.	8d\	.	.	.	4ff\	.	.	.
.	.	.	.	8c\	.	.	.	.	.	.	.
0G	-ta	2e\	.	2g\	.	0r	.	1gg	.	.	.
.	.	4d\	-di-	2g\	-di-	.	.	.	.	4b/	.
.	.	4c/	.	.	.	.	.	.	.	4a/	.
*	*	*custos:d	*	*	*	*	*	*	*	*	*
!	!	!LO:LB:g=original	!	!	!	!	!	!	!	!	!
=46-	=46-	=46-	=46-	=46-	=46-	=46-	=46-	=46-	=46-	=46-	=46-
.	.	2d\	.	4g\	-na-	.	.	1gg	-ta	4b/	.
.	.	.	.	8f\	.	.	.	.	.	4cc\	.
.	.	.	.	8e\	.	.	.	.	.	.	.
.	.	2B/	-na-	2d\	.	.	.	.	.	2.dd\	.
*	*	*	*	*	*	*	*	*custos:gg	*	*	*
!	!	!	!	!	!	!LO:TX:t=P:problem:kreska pseudotaktowa zapisana ołówkiem	!	!LO:LB:g=original	!	!	!
2r	.	1A	-ta	2e\	-ta	1a	Re-	2r	.	.	.
.	.	.	.	.	.	.	.	.	.	8cc#X\	.
.	.	.	.	.	.	.	.	.	.	8b\	.
2A\	Re-	.	.	2a\	Re-	.	.	2ee\	Re-	2cc#X\	.
=47-	=47-	=47-	=47-	=47-	=47-	=47-	=47-	=47-	=47-	=47-	=47-
2.d\	-uer-	0r	.	2a\	-uer-	4f\	-uer-	2.ff\	-uer-	1dd	-ta
.	.	.	.	.	.	4gny\	.	.	.	.	.
.	.	.	.	2f\	-te-	4a\	.	.	.	.	.
4d\	-te-	.	.	.	.	4b\	.	4ff\	-te-	.	.
2c\	-re	.	.	2.g\	-re	2cc\	.	2ee\	-re	1r	.
*	*ij	*	*	*	*ij	*	*	*	*ij	*	*
!	!	!	!	!	!	!LO:TX:t=P:problem:kreska pseudotaktowa zapisana ołówkiem	!	!	!	!	!
2G\	Re-	.	.	.	.	2b-X\	-te-	2dd\	Re-	.	.
.	.	.	.	4d\	Re-	.	.	.	.	.	.
=48-	=48-	=48-	=48-	=48-	=48-	=48-	=48-	=48-	=48-	=48-	=48-
!	!	!	!	!	!	!LO:TX:t=P:problem:kreska pseudotaktowa zapisana ołówkiem	!	!	!	!	!
2.A\	-uer-	2r	.	2f\	-uer-	2a\	-re	2dd\	-uer-	2r	.
*	*	*	*	*	*	*	*ij	*	*	*	*
.	.	2A/	Re-	2e\	-te-	2a\	Re-	2cc#X\	-te-	2ee\	Re-
4A\	-te-	.	.	.	.	.	.	.	.	.	.
1D	-re	2.d\	-uer-	1d	-re	4f\	-uer-	1dd	-re	2.ff\	-uer-
.	.	.	.	.	.	4g\	.	.	.	.	.
.	.	.	.	.	.	4a\	.	.	.	.	.
!	!	!LO:TX:t=P:problem:kreska pseudotaktowa zapisana ołówkiem	!	!	!	!LO:TX:t=P:problem:kreska pseudotaktowa zapisana ołówkiem	!	!	!	!	!
.	.	4d\	-te-	.	.	4bny\	.	.	.	4ff\	-te-
=49-	=49-	=49-	=49-	=49-	=49-	=49-	=49-	=49-	=49-	=49-	=49-
!	!	!	!	!	!	!LO:TX:t=P:problem:kreska pseudotaktowa zapisana ołówkiem	!	!	!	!	!
00r	.	2c/	-re	0r	.	2cc\	.	2r	.	2ee\	-re
*	*Xij	*	*ij	*	*Xij	*	*	*	*Xij	*	*ij
.	.	2G/	Re-	.	.	2b-X\	-te-	2gg\	Re-	2dd\	Re-
!	!	!	!	!	!	!LO:TX:t=P:problem:kreska pseudotaktowa zapisana ołówkiem	!	!	!	!	!
.	.	2.A/	-uer-	.	.	1a	-re	2ff\	-uer-	2dd\	-uer-
.	.	.	.	.	.	.	.	2ee\	-te-	2cc#X\	-te-
!	!	!LO:TX:t=P:problem:kreska pseudotaktowa zapisana ołówkiem	!	!	!	!	!	!	!	!	!
.	.	4A/	-te-	.	.	.	.	.	.	.	.
*	*	*	*	*	*	*	*Xij	*	*	*	*
=50-	=50-	=50-	=50-	=50-	=50-	=50-	=50-	=50-	=50-	=50-	=50-
.	.	1d	-re	2r	.	1a	ſu-	1.dd	-re	2dd\	-re
*	*	*	*Xij	*	*	*	*	*	*	*	*Xij
.	.	.	.	1d	ſu-	.	.	.	.	1ff	ſu-
*	*	*	*	*	*	*custos:b	*	*	*	*	*
!	!	!	!	!	!	!LO:LB:g=original	!	!	!	!	!
.	.	0r	.	.	.	2bny\	-na-	.	.	.	.
*	*	*	*	*	*	*	*	*	*	*custos:ee	*
!	!	!	!	!	!	!LO:TX:t=P:problem:kreska pseudotaktowa zapisana ołówkiem	!	!	!	!LO:LB:g=original	!
.	.	.	.	2e\	-na-	2.cc\	-mi-	2g/	ſu-	1ee\	-na-
=51-	=51-	=51-	=51-	=51-	=51-	=51-	=51-	=51-	=51-	=51-	=51-
1r	.	.	.	1f	-mi-	.	.	1a	-na-	.	.
!	!	!	!	!	!	!LO:TX:t=P:problem:kreska pseudotaktowa zapisana ołówkiem	!	!	!	!	!
.	.	.	.	.	.	4b\	.	.	.	.	.
.	.	.	.	.	.	2a\	.	.	.	2dd\	-mi-
*	*	*	*	*custos:e	*	*	*	*	*	*	*
!	!	!	!	!LO:LB:g=original	!	!	!	!	!	!	!
2r	.	2r	.	2e\	-tis	2g#X\	-tis	1b	-mi-	0ee	-tis
!	!	!LO:TX:t=P:problem:kreska pseudotaktowa zapisana ołówkiem	!	!	!	!LO:TX:t=P:problem:kreska pseudotaktowa zapisana ołówkiem	!	!	!	!	!
2E/	Re-	2B/	Re-	2e\	Re-	2g#\	Re-	.	.	.	.
=52-	=52-	=52-	=52-	=52-	=52-	=52-	=52-	=52-	=52-	=52-	=52-
2.A\	-uer-	2.c/	-uer-	2.e\	-uer-	2.a\	-uer-	1a	-tis	.	.
4A\	-te-	4c/	-te-	4e\	-te-	4cc\	-te-	.	.	.	.
*custos:G	*	*	*	*	*	*	*	*	*	*	*
!LO:LB:g=original	!	!	!	!	!	!	!	!	!	!	!
2G\	-re	2.d\	-re	2g\	-re	2b\	-re	0r	.	0r	.
*	*ij	*	*ij	*	*	*	*ij	*	*	*	*
2D/	Re-	.	.	2f\	Re-	2a\	Re-	.	.	.	.
!	!	!LO:TX:t=P:problem:kreska pseudotaktowa zapisana ołówkiem	!	!	!	!	!	!	!	!	!
.	.	4A/	Re-	.	.	.	.	.	.	.	.
=53-	=53-	=53-	=53-	=53-	=53-	=53-	=53-	=53-	=53-	=53-	=53-
!	!	!	!	!	!	!LO:TX:t=P:problem:kreska pseudotaktowa zapisana ołówkiem	!	!	!	!	!
2.E/	-uer-	2c/	-uer-	2.e\	-uer-	2a\	-uer-	.	.	.	.
.	.	2B/	-te-	.	.	2g#X\	-te-	.	.	.	.
4E/	-te-	.	.	4e\	-te-	.	.	.	.	.	.
1AA	-re	1A	-re	1e	-re	2a\	-re	1ee	Vt	2r	.
*	*Xij	*	*Xij	*	*	*	*Xij	*	*	*	*
!	!	!	!	!	!	!LO:TX:t=P:problem:kreska pseudotaktowa zapisana ołówkiem	!	!	!	!	!
.	.	.	.	.	.	1a\	Vt	.	.	1ccny\	Vt
=54-	=54-	=54-	=54-	=54-	=54-	=54-	=54-	=54-	=54-	=54-	=54-
00r	.	00r	.	00r	.	.	.	2ff\	in-	.	.
.	.	.	.	.	.	2b\	in-	2.gg\	-tu-	2dd\	in-
.	.	.	.	.	.	2.cc\	-tu-	.	.	2.ee\	-tu-
.	.	.	.	.	.	.	.	4ee\	-e-	.	.
.	.	.	.	.	.	.	.	2.gg\	-a-	.	.
!	!	!	!	!	!	!LO:TX:t=P:problem:kreska pseudotaktowa zapisana ołówkiem	!	!	!	!	!
.	.	.	.	.	.	4b\	-ca-	.	.	4dd\	-ca-
=55-	=55-	=55-	=55-	=55-	=55-	=55-	=55-	=55-	=55-	=55-	=55-
!	!	!	!	!	!	!LO:TX:t=P:problem:kreska pseudotaktowa zapisana ołówkiem	!	!	!	!	!
.	.	.	.	.	.	2.cc\	.	.	.	2ee\	-mur
.	.	.	.	.	.	.	.	4ff\	.	.	.
.	.	.	.	.	.	.	.	2.ee\	.	2.gg\	.
.	.	.	.	.	.	8b\	.	.	.	.	.
.	.	.	.	.	.	8a\	.	.	.	.	.
.	.	.	.	.	.	2gny\	.	.	.	.	.
.	.	.	.	.	.	.	.	4dd\	.	8ff\	.
.	.	.	.	.	.	.	.	.	.	8ee\	.
!	!	!	!	!	!	!LO:TX:t=P:problem:kreska pseudotaktowa zapisana ołówkiem	!	!	!	!	!
.	.	.	.	.	.	2b-X\	-mur	1dd\	.	2dd\	.
=56-	=56-	=56-	=56-	=56-	=56-	=56-	=56-	=56-	=56-	=56-	=56-
!	!	!LO:TX:t=P:problem:kreska pseudotaktowa zapisana ołówkiem	!	!	!	!LO:TX:t=P:problem:kreska pseudotaktowa zapisana ołówkiem	!	!	!	!	!
2r	.	2r	.	0r	.	2a\	te	.	.	2ee\	te
2A\	Re-	2a\	Re-	.	.	2a\	Re-	2cc#X\	-mur	2ee\	Re-
*	*	*	*	*	*	*	*	*custos:dd	*	*	*
!	!	!	!	!	!	!	!	!LO:LB:g=original	!	!	!
2.d\	-uer-	2a\	-uer-	.	.	4f\	-uer-	1dd	te	2.ff\	-uer-
.	.	.	.	.	.	4g\	.	.	.	.	.
!	!	!LO:TX:t=P:problem:kreska pseudotaktowa zapisana ołówkiem	!	!	!	!	!	!	!	!	!
.	.	2f\	-te-	.	.	4a\	.	.	.	.	.
!	!	!	!	!	!	!LO:TX:t=P:problem:kreska pseudotaktowa zapisana ołówkiem	!	!	!	!	!
4d\	-te-	.	.	.	.	4bny\	.	.	.	4ff\	-te-
=57-	=57-	=57-	=57-	=57-	=57-	=57-	=57-	=57-	=57-	=57-	=57-
2c\	-re	2.g\	-re	1r	.	2cc\	.	1r	.	2ee\	-re
*	*ij	*	*	*	*	*	*	*	*	*	*
2G\	Re-	.	.	.	.	2b-X\	-te-	.	.	2dd\	Re-
*	*	*	*ij	*	*	*	*	*	*	*	*
.	.	4d\	Re-	.	.	.	.	.	.	.	.
*	*	*custos:f	*	*	*	*custos:a	*	*	*	*	*
!	!	!LO:LB:g=original	!	!	!	!LO:LB:g=original	!	!	!	!	!
2.A\	-uer-	2f\	-uer-	2r	.	2a\	-re	2r	.	2dd\	-uer-
*	*	*	*	*	*	*	*ij	*	*	*	*
!	!	!	!	!	!	!LO:TX:t=P:problem:kreska pseudotaktowa zapisana ołówkiem	!	!	!	!	!
.	.	2e\	-te-	2A/	Re-	2a\	Re-	2ee\	Re-	2cc#X\	-te-
4A\	-te-	.	.	.	.	.	.	.	.	.	.
=58-	=58-	=58-	=58-	=58-	=58-	=58-	=58-	=58-	=58-	=58-	=58-
1D	-re	1d	-re	2.d\	-uer-	4f\	-uer-	2.ff\	-uer-	1dd	-re
.	.	.	.	.	.	4g\	.	.	.	.	.
.	.	.	.	.	.	4a\	.	.	.	.	.
.	.	.	.	4d\	-te-	4bny\	.	4ff\	-te-	.	.
1r	.	0r	.	2c/	-re	2cc\	.	2ee\	-re	2r	.
*	*Xij	*	*Xij	*	*ij	*	*	*	*ij	*	*
.	.	.	.	2G/	Re-	2b-X\	-te-	2dd\	Re-	2gg\	Re-
=59-	=59-	=59-	=59-	=59-	=59-	=59-	=59-	=59-	=59-	=59-	=59-
00r	.	.	.	2.A/	-uer-	1a	-re	2dd\	-uer-	2ff\	-uer-
.	.	.	.	.	.	.	.	2cc#X\	-te-	2ee\	-te-
.	.	.	.	4A/	-te-	.	.	.	.	.	.
*	*	*	*	*	*	*	*Xij	*	*	*custos:dd	*
!	!	!	!	!	!	!LO:TX:t=P:problem:kreska pseudotaktowa zapisana ołówkiem	!	!	!	!LO:LB:g=original	!
.	.	2r	.	1d	-re	1a	ſu-	2dd\	-re	1.dd	-re
*	*	*	*	*	*Xij	*	*	*	*Xij	*	*
!	!	!LO:TX:t=P:problem:kreska pseudotaktowa zapisana ołówkiem	!	!	!	!	!	!	!	!	!
.	.	1d\	ſu-	.	.	.	.	1ff\	ſu-	.	.
=60-	=60-	=60-	=60-	=60-	=60-	=60-	=60-	=60-	=60-	=60-	=60-
.	.	.	.	0r	.	2bny\	-na-	.	.	.	.
.	.	2e\	-na-	.	.	2.cc\	-mi-	1ee	-na-	2g/	ſu-
!	!	!LO:TX:t=P:problem:kreska pseudotaktowa zapisana ołówkiem	!	!	!	!	!	!	!	!	!
.	.	1f	-mi-	.	.	.	.	.	.	1a	-na-
.	.	.	.	.	.	4b\	.	.	.	.	.
!	!	!	!	!	!	!LO:TX:t=P:problem:kreska pseudotaktowa zapisana ołówkiem	!	!	!	!	!
.	.	.	.	.	.	2a\	.	2dd\	-mi-	.	.
=61-	=61-	=61-	=61-	=61-	=61-	=61-	=61-	=61-	=61-	=61-	=61-
1E	Re-	2e\	-tis	2r	.	2g#X\	-tis	1ee	-tis	1b	-mi-
.	.	2e\	Re-	2B/	Re-	2g#\	Re-	.	.	.	.
2.A\	-uer-	2.e\	-uer-	2.c/	-uer-	2.a\	-uer-	1r	.	1a	-tis
!	!	!LO:TX:t=P:problem:kreska pseudotaktowa zapisana ołówkiem	!	!d	!	!LO:TX:t=P:problem:kreska pseudotaktowa zapisana ołówkiem	!	!	!	!	!
4A\	-te-	4f\	-te-	4c/	-te-	4cc\	-te-	.	.	.	.
*	*	*	*	*custos:d	*	*	*	*	*	*	*
!	!	!	!	!LO:LB:g=original	!	!	!	!	!	!	!
=62-	=62-	=62-	=62-	=62-	=62-	=62-	=62-	=62-	=62-	=62-	=62-
2G\	-re	2g\	-re	2.d\	-re	2b\	-re	0r	.	0r	.
*	*ij	*	*ij	*	*ij	*	*ij	*	*	*	*
2D/	Re-	2f\	Re-	.	.	2a\	Re-	.	.	.	.
.	.	.	.	4A/	Re-	.	.	.	.	.	.
2.E/	-uer-	2.e\	-uer-	2c/	-uer-	2a\	-uer-	.	.	.	.
!	!	!	!	!	!	!LO:TX:t=P:problem:kreska pseudotaktowa zapisana ołówkiem	!	!	!	!	!
.	.	.	.	2B/	-te-	2g#X\	-te-	.	.	.	.
!	!	!LO:TX:t=P:problem:kreska pseudotaktowa zapisana ołówkiem	!	!	!	!	!	!	!	!	!
4E/	-te-	4e\	-te-	.	.	.	.	.	.	.	.
=63-	=63-	=63-	=63-	=63-	=63-	=63-	=63-	=63-	=63-	=63-	=63-
!	!	!LO:TX:t=P:problem:kreska pseudotaktowa zapisana ołówkiem	!	!	!	!	!	!	!	!	!
1AA	-re	1e	-re	1A	-re	2a\	-re	2r	.	1ee	vt
*	*Xij	*	*Xij	*	*Xij	*	*Xij	*	*	*	*
.	.	.	.	.	.	1a	vt	1ccny	vt	.	.
1r	.	1r	.	1r	.	.	.	.	.	2ff\	in-
!	!	!	!	!	!	!LO:TX:t=P:problem:kreska pseudotaktowa zapisana ołówkiem	!	!	!	!	!
.	.	.	.	.	.	2b\	in-	2dd\	in-	2.gg\	-tu-
=64-	=64-	=64-	=64-	=64-	=64-	=64-	=64-	=64-	=64-	=64-	=64-
!	!	!LO:TX:t=P:problem:kreska pseudotaktowa zapisana ołówkiem	!	!	!	!	!	!	!	!	!
00r	.	0r	.	0r	.	2.cc\	-tue-	2.ee\	-tu-	.	.
.	.	.	.	.	.	.	.	.	.	4ee\	-ca-
.	.	.	.	.	.	.	.	.	.	2.gg\	.
.	.	.	.	.	.	4b\	-a-	4dd\	-e-	.	.
.	.	.	.	.	.	2.cc\	.	2ee\	-a-	.	.
.	.	.	.	.	.	.	.	.	.	4ff\	.
.	.	.	.	.	.	.	.	2.gg\	.	2.ee\	.
.	.	.	.	.	.	8b\	.	.	.	.	.
.	.	.	.	.	.	8a\	.	.	.	.	.
*	*	*	*	*	*	*custos:g	*	*	*	*	*
!	!	!	!	!	!	!LO:LB:g=original	!	!	!	!	!
=65-	=65-	=65-	=65-	=65-	=65-	=65-	=65-	=65-	=65-	=65-	=65-
!D	!	!	!	!	!	!LO:TX:t=P:problem:kreska pseudotaktowa zapisana ołówkiem	!	!	!	!	!
.	.	1r	.	1r	.	2gny\	.	.	.	.	.
.	.	.	.	.	.	.	.	4ff\	.	4dd\	.
!	!	!	!	!	!	!LO:TX:t=P:problem:kreska pseudotaktowa zapisana ołówkiem	!	!	!	!	!
.	.	.	.	.	.	2b-X\	-mur	4ff\	.	1dd	.
.	.	.	.	.	.	.	.	8ee\	.	.	.
.	.	.	.	.	.	.	.	8dd\	.	.	.
.	.	2r	.	1.A	vt	1a	te	2ee\	.	.	.
.	.	2e\	Vt	.	.	.	.	2ee\	-mur	2cc#X\	-mur
*custos:D	*	*	*	*	*	*	*	*	*	*	*
!LO:LB:g=original	!	!	!	!	!	!	!	!	!	!	!
=66-	=66-	=66-	=66-	=66-	=66-	=66-	=66-	=66-	=66-	=66-	=66-
!	!	!	!	!	!	!LO:TX:t=P:problem:kreska pseudotaktowa zapisana ołówkiem	!	!	!	!	!
1D	vt	2.f\	in-	.	.	0r	.	1dd	te	1dd	te
.	.	.	.	2B/	in-	.	.	.	.	.	.
.	.	4d\	-tu-	.	.	.	.	.	.	.	.
2E/	in-	2g\	-e-	2.c/	-tu-	.	.	2r	.	1r	.
*	*	*	*	*	*	*	*	*	*ij	*	*
!	!	!LO:TX:t=P:problem:kreska pseudotaktowa zapisana ołówkiem	!	!	!	!	!	!	!	!	!
1F\	-tu-	1f\	-a-	.	.	.	.	1a/	vt	.	.
.	.	.	.	4c/	-e-	.	.	.	.	.	.
=67-	=67-	=67-	=67-	=67-	=67-	=67-	=67-	=67-	=67-	=67-	=67-
.	.	.	.	2d\	-a-	1r	.	.	.	2r	.
*	*	*	*	*	*	*	*	*	*	*	*ij
2G\	-e-	2d\	-mur	2B/	-mur	.	.	2b/	in-	2dd\	vt
*	*	*	*	*	*	*	*	*custos:cc	*	*	*
!	!	!LO:TX:t=P:problem:kreska pseudotaktowa zapisana ołówkiem	!	!	!	!	!	!LO:LB:g=original	!	!	!
1E	-a-	1g	te	1e	te	2r	.	2cc\	-tu-	1ee	in-
!	!	!	!	!	!	!LO:TX:t=P:problem:kreska pseudotaktowa zapisana ołówkiem	!	!	!	!	!
.	.	.	.	.	.	2g\	Vt	2cc\	-e-	.	.
=68-	=68-	=68-	=68-	=68-	=68-	=68-	=68-	=68-	=68-	=68-	=68-
1D	-mur	1r	.	2r	.	1a	in-	2.dd\	-a-	2ff#X\	-tu-
*	*	*	*ij	*	*ij	*	*	*	*	*	*
.	.	.	.	1d	vt	.	.	.	.	2ff#\	-ca-
.	.	.	.	.	.	.	.	4cc\	.	.	.
1G	te	2r	.	.	.	2bny\	-tu-	4b/	.	4gg\	.
.	.	.	.	.	.	.	.	4a/	.	4ffny\	.
!	!	!	!	!	!	!LO:TX:t=P:problem:kreska pseudotaktowa zapisana ołówkiem	!	!	!	!	!
!	!	!LO:TX:t=P:problem:kreska pseudotaktowa zapisana ołówkiem	!	!	!	!	!	!	!	!	!
.	.	2G/	Vt	1e\	in-	2b\	-e-	4g/	.	4ee\	.
.	.	.	.	.	.	.	.	4f/	.	4dd\	.
*	*	*custos:A	*	*	*	*	*	*	*	*custos:cc	*
!	!	!LO:LB:g=original	!	!	!	!	!	!	!	!LO:LB:g=original	!
=69-	=69-	=69-	=69-	=69-	=69-	=69-	=69-	=69-	=69-	=69-	=69-
00r	.	1A	in-	.	.	4cc\	-a-	2e/	.	2ccny\	.
.	.	.	.	.	.	4b\	.	.	.	.	.
.	.	.	.	1f	-tu-	4a\	.	2a/	-mur	2cc\	-mur
.	.	.	.	.	.	4g\	.	.	.	.	.
.	.	2B-X/	-tu-	.	.	2.f\	.	1d	te	0dd	te
!	!	!LO:TX:t=P:problem:kreska pseudotaktowa zapisana ołówkiem	!	!	!	!	!	!	!	!	!
.	.	2B-/	-e-	2.d\	-e-	.	.	.	.	.	.
.	.	.	.	.	.	8g\	.	.	.	.	.
!	!	!	!	!	!	!LO:TX:t=P:problem:kreska pseudotaktowa zapisana ołówkiem	!	!	!	!	!
.	.	.	.	.	.	8a\	.	.	.	.	.
=70-	=70-	=70-	=70-	=70-	=70-	=70-	=70-	=70-	=70-	=70-	=70-
*	*	*	*	*	*	*lig	*	*	*Xij	*	*Xij
.	.	2G/	-a-	.	.	1b-X	.	0r	.	.	.
.	.	.	.	8e\	.	.	.	.	.	.	.
.	.	.	.	8f\	.	.	.	.	.	.	.
.	.	2G/	-mur	2g\	.	.	.	.	.	.	.
*	*	*	*	*	*	*col	*	*	*	*	*
!	!	!LO:TX:t=P:problem:kreska pseudotaktowa zapisana ołówkiem	!	!	!	!	!	!	!	!	!
.	.	0.A	te	2f\	.	2.a\	.	.	.	2r	.
.	.	.	.	2.e\	.	.	.	.	.	1cc\	Vt
*	*	*	*Xij	*	*	*Xlig	*	*	*	*	*
!	!	!	!	!	!	!LO:TX:t=P:problem:kreska pseudotaktowa zapisana ołówkiem	!	!	!	!	!
.	.	.	.	.	.	4g\	.	.	.	.	.
*	*	*	*	*	*	*Xcol	*	*	*	*	*
=71-	=71-	=71-	=71-	=71-	=71-	=71-	=71-	=71-	=71-	=71-	=71-
0r	.	.	.	.	.	2f\	.	0a	Vt	.	.
.	.	.	.	4d\	.	.	.	.	.	.	.
*	*	*	*	*custos:d	*	*	*	*	*	*	*
!	!	!	!	!LO:LB:g=original	!	!	!	!	!	!	!
.	.	.	.	1d	-a-	2f\	-mur	.	.	2dd\	in-
!	!	!	!	!	!	!LO:TX:t=P:problem:kreska pseudotaktowa zapisana ołówkiem	!	!	!	!	!
.	.	.	.	.	.	1e	te	.	.	2ee\	-tu-
.	.	.	.	2c#X/	-mur	.	.	.	.	2ee\	-ca-
=72-	=72-	=72-	=72-	=72-	=72-	=72-	=72-	=72-	=72-	=72-	=72-
!	!	!	!	!	!	!LO:TX:t=P:problem:kreska pseudotaktowa zapisana ołówkiem	!	!	!	!	!
1r	.	2r	.	1d	te	0r	.	1a	in-	1ff#X	-mur
.	.	1d	vt	.	.	.	.	.	.	.	.
1G	Vt	.	.	1r	.	.	.	2b/	-tu-	2.gg\	.
!	!	!LO:TX:t=P:problem:kreska pseudotaktowa zapisana ołówkiem	!	!	!	!	!	!	!	!	!
.	.	2e\	in-	.	.	.	.	2b/	-e-	.	.
.	.	.	.	.	.	.	.	.	.	4ffny\	.
*	*	*	*	*	*Xij	*	*	*	*	*	*
=73-	=73-	=73-	=73-	=73-	=73-	=73-	=73-	=73-	=73-	=73-	=73-
1A	in-	2e\	-tu-	2r	.	1r	.	2.cc#X\	-a-	2ee\	.
.	.	2f#X\	-e-	2A/	Vt	.	.	.	.	2a/	te
.	.	.	.	.	.	.	.	4dd\	-mur	.	.
1E	-tu-	4g\	-a-	2B/	in-	2r	.	1ee	te	1r	.
.	.	4fny\	.	.	.	.	.	.	.	.	.
*	*	*	*	*	*	*	*ij	*	*	*	*
!	!	!	!	!	!	!LO:TX:t=P:problem:kreska pseudotaktowa zapisana ołówkiem	!	!	!	!	!
.	.	4e\	.	2.cny/	-tu-	2g\	Vt	.	.	.	.
!	!	!LO:TX:t=P:problem:kreska pseudotaktowa zapisana ołówkiem	!	!	!	!	!	!	!	!	!
.	.	4d\	.	.	.	.	.	.	.	.	.
=74-	=74-	=74-	=74-	=74-	=74-	=74-	=74-	=74-	=74-	=74-	=74-
*lig	*	*	*	*	*	*	*	*	*	*	*
1F	-e-	2c/	.	.	.	1a	in-	1r	.	0r	.
.	.	.	.	4A/	.	.	.	.	.	.	.
.	.	2f\	-mur	2.d\	.	.	.	.	.	.	.
*	*	*	*	*	*	*	*	*	*ij	*	*ij
!	!	!	!	!	!	!LO:TX:t=P:problem:kreska pseudotaktowa zapisana ołówkiem	!	!	!	!	!
1G	.	2d\	te	.	.	1.bny	-tu-	2r	.	.	.
.	.	.	.	4c/	.	.	.	.	.	.	.
!	!	!LO:TX:t=P:problem:kreska pseudotaktowa zapisana ołówkiem	!	!	!	!	!	!	!	!	!
.	.	2g\	in-	4B/	.	.	.	2dd\	Vt	.	.
.	.	.	.	4A/	.	.	.	.	.	.	.
*Xlig	*	*	*	*	*	*	*	*	*	*	*
=75-	=75-	=75-	=75-	=75-	=75-	=75-	=75-	=75-	=75-	=75-	=75-
0.E	-a-	4g\	-tu-	2G/	.	.	.	2ee\	in-	2r	.
.	.	4f\	.	.	.	.	.	.	.	.	.
.	.	4e\	.	2G/	-e-	2b\	-e-	1gg	-tu-	1g	Vt
.	.	4d\	.	.	.	.	.	.	.	.	.
.	.	2e\	.	1.g	-a-	2cc\	-a-	.	.	.	.
*	*	*	*	*	*	*lig	*	*	*	*	*
!	!	!LO:TX:t=P:problem:kreska pseudotaktowa zapisana ołówkiem	!	!	!	!LO:TX:t=P:problem:kreska pseudotaktowa zapisana ołówkiem	!	!	!	!	!
.	.	2d\	-e-	.	.	1b\	.	2gg\	-e-	2g/	in-
=76-	=76-	=76-	=76-	=76-	=76-	=76-	=76-	=76-	=76-	=76-	=76-
.	.	1c	-a-	.	.	.	.	1.ee	-a-	2g/	-tu-
.	.	.	.	2e\	-mur	1a	.	.	.	2a/	-ca-
!	!	!	!	!LO:N:vis=00	!	!	!	!	!	!	!
1E	-mur	1Bny	-mur	0.e	te	.	.	.	.	2b/	.
*	*	*	*	*	*	*Xlig	*	*	*	*	*
.	.	.	.	.	.	2g#X\	-mur	2ee\	-mur	2b/	-mur
=77-	=77-	=77-	=77-	=77-	=77-	=77-	=77-	=77-	=77-	=77-	=77-
!LO:N:vis=00	!	!LO:N:vis=00	!	!	!	!LO:N:vis=00	!	!LO:N:vis=00	!	!LO:N:vis=00	!
0AA	te.	0A	te.	.	.	0a	te	0ee	te	0cc#X	te
==	==	==	==	==	==	==	==	==	==	==	==
*-	*-	*-	*-	*-	*-	*-	*-	*-	*-	*-	*-
!!!system-decoration: [(s1,s2,s3,s4,s5,s6)]
!!!ENC: Berenika Jozajtis
!!!END: 2022-07-13
!!!ENC: Jan Barakat
!!!END: 2022-08-10
